X: 111
T:Charlie Harris No.2
M:C
L:1/8
B:M.Brcher Irish Dance Tunes Vol.2
K:D
| A2 AB AF ~F2 | AAAd f2 fg | afef dedB | ABAF EFDF |
A2 AB AF ~F2 | AAAd f2 fg | afef dedB |1 Adfe d4 :|2 Adfe d2 de |
|: fded BAFA | dcdf a2 af | g2 fg eB ~B2 | dBAF EFDF | 
A2 AB AF ~F2 | AAAd f2 fg | afef dedB |Adfe d4 :|
